icons/desktop/12/svg/shopping-cart-12.svg

<svg width="12" height="12" viewBox="0 0 12 12" fill="none" xmlns="http://www.w3.org/2000/svg">
<path d="M4.875 10.25C5.35825 10.25 5.75 10.6418 5.75 11.125C5.75 11.6082 5.35825 12 4.875 12C4.39175 12 4 11.6082 4 11.125C4 10.6418 4.39175 10.25 4.875 10.25Z" fill="black"/>
<path d="M9.875 10.25C10.3582 10.25 10.75 10.6418 10.75 11.125C10.75 11.6082 10.3582 12 9.875 12C9.39175 12 9 11.6082 9 11.125C9 10.6418 9.39175 10.25 9.875 10.25Z" fill="black"/>
<path fill-rule="evenodd" clip-rule="evenodd" d="M1.22656 1C2.29953 1 3.24445 1.72382 3.52148 2.75977L3.63672 3.19238C5.84272 2.96938 8.08727 2.94242 10.2803 3.10742C10.8331 3.1485 11.3353 3.43188 11.6553 3.88379C11.9783 4.33979 12.0806 4.91115 11.9346 5.45215L11.3232 7.73926C11.1242 8.48108 10.5011 9.01922 9.7373 9.1123C8.97743 9.20429 8.20526 9.24998 7.44238 9.25C6.67955 9.25 5.9073 9.20427 5.14746 9.1123C4.3835 9.01931 3.75958 8.48018 3.56055 7.74023L2.57422 4.05469C2.57024 4.04075 2.5655 4.02566 2.56152 4.01074L2.31445 3.08301C2.18245 2.59301 1.73456 2.25 1.22656 2.25H0.625C0.28 2.25 0 1.97 0 1.625C0 1.28 0.28 1 0.625 1H1.22656ZM10.1865 4.35254C8.13269 4.19758 6.03567 4.21803 3.96484 4.41602L4.76855 7.41602C4.83454 7.66197 5.04191 7.84005 5.29785 7.87109C6.71782 8.04309 8.16694 8.04308 9.58691 7.87109C9.84291 7.84009 10.0502 7.66104 10.1162 7.41504L10.7275 5.12891L10.7285 5.12793C10.7765 4.94799 10.7427 4.7584 10.6357 4.60742C10.5747 4.52042 10.4335 4.37154 10.1865 4.35254Z" fill="black"/>
</svg>

<!-- This Source Code Form is subject to the terms of the Mozilla Public
   - License, v. 2.0. If a copy of the MPL was not distributed with this
   - file, You can obtain one at http://mozilla.org/MPL/2.0/. -->
<svg xmlns="http://www.w3.org/2000/svg" width="12" height="12" fill="context-fill" fill-opacity="context-fill-opacity" viewBox="0 0 12 12">
    <path d="M4.875 10.25a.875.875 0 1 1 0 1.75.875.875 0 0 1 0-1.75M9.875 10.25a.875.875 0 1 1 0 1.75.875.875 0 0 1 0-1.75" />
    <path fill-rule="evenodd" d="M1.227 1C2.3 1 3.244 1.724 3.52 2.76l.116.432c2.206-.223 4.45-.25 6.643-.085a1.864 1.864 0 0 1 1.654 2.345l-.61 2.287a1.87 1.87 0 0 1-1.587 1.373 19.2 19.2 0 0 1-4.59 0A1.87 1.87 0 0 1 3.561 7.74l-.987-3.685-.012-.044-.248-.928a1.13 1.13 0 0 0-1.087-.833H.625a.625.625 0 0 1 0-1.25zm8.96 3.353a36.7 36.7 0 0 0-6.222.063l.804 3a.62.62 0 0 0 .529.455c1.42.172 2.869.172 4.289 0a.62.62 0 0 0 .53-.456l.61-2.286.002-.001a.62.62 0 0 0-.093-.52.6.6 0 0 0-.45-.255" clip-rule="evenodd" />
</svg>
